Newaita-dark/apps/48/maps.svg

<svg height="48" viewBox="0 0 48 48" width="48" xmlns="http://www.w3.org/2000/svg" xmlns:xlink="http://www.w3.org/1999/xlink"><linearGradient id="a" gradientUnits="userSpaceOnUse" x1="23.814786" x2="23.814786" y1="42.0509015" y2="4.34415649995"><stop offset="0" stop-color="#64b5f6"/><stop offset="1" stop-color="#90caf9"/></linearGradient><linearGradient id="b"><stop offset="0" stop-opacity=".27451"/><stop offset="1" stop-opacity="0"/></linearGradient><linearGradient id="c" gradientUnits="userSpaceOnUse" x1="23.81478" x2="23.81478" xlink:href="#b" y1="42.0509045" y2="44.03547050005"/><linearGradient id="d"><stop offset="0" stop-opacity=".313726"/><stop offset=".222222" stop-opacity=".27451"/><stop offset="1" stop-opacity="0"/></linearGradient><radialGradient id="e" cx="450.908936" cy="189.579361" gradientTransform="matrix(.00000026 -.117199 -.210958 -.00000015 79.684395 95.392999)" gradientUnits="userSpaceOnUse" r="21.166656" xlink:href="#d"/><radialGradient id="f" cx="450.908936" cy="189.579361" gradientTransform="matrix(-.00000026 .117199 .210958 .00000015 -31.80678 -11.291218)" gradientUnits="userSpaceOnUse" r="21.166656" xlink:href="#d"/><radialGradient id="g" cx="450.908936" cy="189.579361" gradientTransform="matrix(-.00000026 -.117199 .210958 -.00000015 -31.80678 95.392999)" gradientUnits="userSpaceOnUse" r="21.166656" xlink:href="#d"/><radialGradient id="h" cx="450.908936" cy="189.579361" gradientTransform="matrix(.00000026 .117199 -.210958 .00000015 79.684393 -11.291219)" gradientUnits="userSpaceOnUse" r="21.166656" xlink:href="#d"/><linearGradient id="i" gradientUnits="userSpaceOnUse" x1="28.7761987499" x2="29.7684825" y1="42.0509005" y2="6.3287215"><stop offset="0" stop-color="#4caf50"/><stop offset="1" stop-color="#66bb6a"/></linearGradient><linearGradient id="j" gradientUnits="userSpaceOnUse" x1="27.783952" x2="27.783952" y1="4.34417266504" y2="42.05096580616"><stop offset="0" stop-color="#d7ccc8"/><stop offset="1" stop-color="#efebe9"/></linearGradient><linearGradient id="k"><stop offset="0" stop-color="#ef5350"/><stop offset="1" stop-color="#f44336"/></linearGradient><linearGradient id="l" gradientUnits="userSpaceOnUse" x1="30.760804" x2="30.760804" xlink:href="#k" y1="8.31333729293" y2="30.14358680616"/><linearGradient id="m" gradientUnits="userSpaceOnUse" x1="30.7607662501" x2="30.7607662501" xlink:href="#k" y1="12.282419" y2="18.2361155"/><linearGradient id="n" gradientUnits="userSpaceOnUse" x1="30.7607662501" x2="30.7607662501" xlink:href="#b" y1="8.3132869999" y2="18.2361155"/><path d="m5.457031 4.34375h36.714844c.820313 0 1.488281.667969 1.488281 1.488281v34.730469c0 .820312-.667968 1.488281-1.488281 1.488281h-36.714844c-.820312 0-1.488281-.667969-1.488281-1.488281v-34.730469c0-.820312.667969-1.488281 1.488281-1.488281zm0 0" fill="url(#a)"/><path d="m7.691406 42.050781h32.496094v1.984375h-32.496094zm0 0" fill="url(#c)"/><path d="m40.1875 42.050781h3.96875v-1.984375h-3.96875zm0 0" fill="url(#e)"/><path d="m7.691406 42.050781h-3.96875v1.984375h3.96875zm0 0" fill="url(#f)"/><path d="m7.691406 42.050781h-3.96875v-1.984375h3.96875zm0 0" fill="url(#g)"/><path d="m40.1875 42.050781h3.96875v1.984375h-3.96875zm0 0" fill="url(#h)"/><path d="m43.660156 6.328125-17.0625 16.605469 17.0625 16.140625zm-20.082031 19.542969-16.632813 16.179687h33.738282zm0 0" fill="url(#i)"/><path d="m5.953125 42.050781c-1.097656 0-1.984375-.886719-1.984375-1.984375v-.25c0 1.101563.886719 1.988282 1.984375 1.988282h35.722656c1.097657 0 1.984375-.886719 1.984375-1.988282v.25c0 1.097656-.886718 1.984375-1.984375 1.984375zm0 0" fill-opacity=".196078"/><path d="m40.683594 4.34375-36.714844 34.730469v1.488281c0 .824219.664062 1.488281 1.488281 1.488281h1.488281l16.632813-16.179687 17.105469 16.179687h1.488281c.824219 0 1.488281-.664062 1.488281-1.488281v-1.488281l-17.0625-16.140625 17.0625-16.605469v-.496094c0-.824219-.664062-1.488281-1.488281-1.488281zm0 0" fill="url(#j)" fill-rule="evenodd"/><path d="m5.953125 4.34375c-1.097656 0-1.984375.886719-1.984375 1.984375v.25c0-1.101563.886719-1.984375 1.984375-1.984375h35.722656c1.097657 0 1.984375.882812 1.984375 1.984375v-.25c0-1.097656-.886718-1.984375-1.984375-1.984375zm0 0" fill="#fff" fill-opacity=".643312"/><path d="m40.683594 4.34375-36.714844 34.730469v.496093l36.714844-34.730468h1.488281c.824219 0 1.488281.664062 1.488281 1.488281v-.496094c0-.824219-.664062-1.488281-1.488281-1.488281zm-13.828125 18.832031-.257813.253907 17.0625 16.140624v-.496093zm0 0" fill-opacity=".235294" fill-rule="evenodd"/><path d="m43.65625 6.347656-17.050781 16.59375.3125.296875 16.742187-16.289062v-.496094c0-.035156 0-.070313-.003906-.105469zm-20.078125 19.539063-16.617187 16.164062h.621093l15.996094-15.5625 16.449219 15.5625h.640625zm0 0" fill="#fff" fill-opacity=".392157" fill-rule="evenodd"/><path d="m5.457031 4.203125c-.898437 0-1.628906.730469-1.628906 1.628906v34.730469c0 .898438.730469 1.628906 1.628906 1.628906h36.714844c.898437 0 1.628906-.730468 1.628906-1.628906v-34.730469c0-.898437-.730469-1.628906-1.628906-1.628906zm0 .28125h36.714844c.75 0 1.347656.597656 1.347656 1.347656v34.730469c0 .75-.597656 1.347656-1.347656 1.347656h-36.714844c-.75 0-1.347656-.597656-1.347656-1.347656v-34.730469c0-.75.597656-1.347656 1.347656-1.347656zm0 0" fill="#212121"/><path d="m1640.000954 175.101398-1480.016223 1400.023858v59.994274c0 33.225176 26.769098 59.994274 59.994274 59.994274h59.994274l670.487188-652.221214 689.540487 652.221214h59.994274c33.225176 0 59.994274-26.769098 59.994274-59.994274v-59.994274l-687.808369-650.646562 687.808369-669.384931v-19.998091c0-33.225175-26.769098-59.994274-59.994274-59.994274zm0 0" fill="none" stroke="#212121" stroke-width="11.338583" transform="scale(.0248071)"/><path d="m30.761719 8.3125c-3.847657 0-6.945313 3.097656-6.945313 6.945312 0 6.453126 4.960938 12.902344 6.945313 14.886719 1.488281-1.984375 6.945312-8.433593 6.945312-14.886719 0-3.847656-3.097656-6.945312-6.945312-6.945312zm0 3.96875c1.648437 0 2.976562 1.328125 2.976562 2.976562 0 1.652344-1.328125 2.976563-2.976562 2.976563-1.648438 0-2.976563-1.324219-2.976563-2.976563 0-1.648437 1.328125-2.976562 2.976563-2.976562zm0 0" fill="url(#l)"/><path d="m30.761719 12.28125c1.644531 0 2.976562 1.332031 2.976562 2.976562 0 1.644532-1.332031 2.976563-2.976562 2.976563s-2.976563-1.332031-2.976563-2.976563c0-1.644531 1.332032-2.976562 2.976563-2.976562zm0 0" fill="url(#m)"/><path d="m30.761719 12.28125c-1.648438 0-2.976563 1.328125-2.976563 2.976562 0 .128907.007813.25.023438.375.179687-1.472656 1.429687-2.605468 2.953125-2.605468 1.523437 0 2.769531 1.132812 2.953125 2.605468.015625-.125.023437-.246093.023437-.375 0-1.648437-1.328125-2.976562-2.976562-2.976562zm0 0" fill-opacity=".235294"/><path d="m27.792969 15.507812c-.003907.082032-.007813.164063-.007813.246094 0 1.652344 1.328125 2.976563 2.976563 2.976563 1.648437 0 2.976562-1.324219 2.976562-2.976563 0-.082031-.003906-.164062-.011719-.246094-.125 1.53125-1.402343 2.726563-2.964843 2.726563-1.566407 0-2.839844-1.195313-2.96875-2.726563zm0 0" fill="#fff" fill-opacity=".392157"/><path d="m328.093669-84.012509c17.539991 0 31.746968 14.206977 31.746968 31.746969 0 17.539991-14.206977 31.746968-31.746968 31.746968-17.539992 0-31.746969-14.206977-31.746969-31.746968 0-17.539992 14.206977-31.746969 31.746969-31.746969zm0 0" fill="none" stroke="#212121" stroke-linecap="round" stroke-linejoin="round" stroke-width="3" transform="matrix(.093759 0 0 .093759 0 20.158175)"/><path d="m37.691406 15.820312c-.296875 6.257813-5.484375 12.394532-6.929687 14.324219-1.925781-1.925781-6.65625-8.058593-6.933594-14.3125-.007813.136719-.011719.277344-.011719.417969 0 6.453125 4.960938 12.902344 6.945313 14.886719 1.488281-1.984375 6.945312-8.433594 6.945312-14.886719 0-.144531-.003906-.289062-.015625-.429688zm0 0" fill-opacity=".235294"/><path d="m328.093669-126.3418c-41.037748 0-74.07626 33.038512-74.07626 74.07626 0 68.82676 52.911614 137.611858 74.07626 158.776504 15.873484-21.164646 74.076259-89.949744 74.076259-158.776504 0-41.037748-33.038512-74.07626-74.076259-74.07626zm0 42.329291c17.581654 0 31.746968 14.165314 31.746968 31.746969 0 17.623317-14.165314 31.746968-31.746968 31.746968-17.581655 0-31.746969-14.123651-31.746969-31.746968 0-17.581655 14.165314-31.746969 31.746969-31.746969zm0 0" fill="none" stroke="#212121" stroke-linecap="round" stroke-width="3" transform="matrix(.093759 0 0 .093759 0 20.158175)"/><path d="m30.761719 12.28125c1.644531 0 2.976562 1.332031 2.976562 2.976562 0 1.644532-1.332031 2.976563-2.976562 2.976563s-2.976563-1.332031-2.976563-2.976563c0-1.644531 1.332032-2.976562 2.976563-2.976562zm0 0" fill="url(#n)"/></svg>

<?xml version="1.0" encoding="UTF-8"?>
<svg xmlns="http://www.w3.org/2000/svg" xmlns:xlink="http://www.w3.org/1999/xlink" width="48pt" height="48pt" viewBox="0 0 48 48" version="1.1">
<defs>
<linearGradient id="linear0" gradientUnits="userSpaceOnUse" x1="254" y1="233.5" x2="254" y2="-168.666672" gradientTransform="matrix(0.093759,0,0,0.093759,0,20.158175)">
<stop offset="0" style="stop-color:rgb(39.215686%,70.980392%,96.470588%);stop-opacity:1;"/>
<stop offset="1" style="stop-color:rgb(56.470588%,79.215686%,97.647059%);stop-opacity:1;"/>
</linearGradient>
<linearGradient id="linear1" gradientUnits="userSpaceOnUse" x1="254" y1="233.5" x2="254" y2="254.666672" gradientTransform="matrix(0.093759,0,0,0.093759,-0.00000572259,20.158178)">
<stop offset="0" style="stop-color:rgb(0%,0%,0%);stop-opacity:0.27451;"/>
<stop offset="1" style="stop-color:rgb(0%,0%,0%);stop-opacity:0;"/>
</linearGradient>
<radialGradient id="radial0" gradientUnits="userSpaceOnUse" cx="450.908936" cy="189.579361" fx="450.908936" fy="189.579361" r="21.166656" gradientTransform="matrix(0.000000261256,-0.117199,-0.210958,-0.000000152308,79.684395,95.392999)">
<stop offset="0" style="stop-color:rgb(0%,0%,0%);stop-opacity:0.313725;"/>
<stop offset="0.222222" style="stop-color:rgb(0%,0%,0%);stop-opacity:0.27451;"/>
<stop offset="1" style="stop-color:rgb(0%,0%,0%);stop-opacity:0;"/>
</radialGradient>
<radialGradient id="radial1" gradientUnits="userSpaceOnUse" cx="450.908936" cy="189.579361" fx="450.908936" fy="189.579361" r="21.166656" gradientTransform="matrix(-0.000000261256,0.117199,0.210958,0.000000152308,-31.80678,-11.291218)">
<stop offset="0" style="stop-color:rgb(0%,0%,0%);stop-opacity:0.313725;"/>
<stop offset="0.222222" style="stop-color:rgb(0%,0%,0%);stop-opacity:0.27451;"/>
<stop offset="1" style="stop-color:rgb(0%,0%,0%);stop-opacity:0;"/>
</radialGradient>
<radialGradient id="radial2" gradientUnits="userSpaceOnUse" cx="450.908936" cy="189.579361" fx="450.908936" fy="189.579361" r="21.166656" gradientTransform="matrix(-0.000000261256,-0.117199,0.210958,-0.000000152308,-31.80678,95.392999)">
<stop offset="0" style="stop-color:rgb(0%,0%,0%);stop-opacity:0.313725;"/>
<stop offset="0.222222" style="stop-color:rgb(0%,0%,0%);stop-opacity:0.27451;"/>
<stop offset="1" style="stop-color:rgb(0%,0%,0%);stop-opacity:0;"/>
</radialGradient>
<radialGradient id="radial3" gradientUnits="userSpaceOnUse" cx="450.908936" cy="189.579361" fx="450.908936" fy="189.579361" r="21.166656" gradientTransform="matrix(0.000000261256,0.117199,-0.210958,0.000000152308,79.684393,-11.291219)">
<stop offset="0" style="stop-color:rgb(0%,0%,0%);stop-opacity:0.313725;"/>
<stop offset="0.222222" style="stop-color:rgb(0%,0%,0%);stop-opacity:0.27451;"/>
<stop offset="1" style="stop-color:rgb(0%,0%,0%);stop-opacity:0;"/>
</radialGradient>
<linearGradient id="linear2" gradientUnits="userSpaceOnUse" x1="306.916656" y1="233.5" x2="317.5" y2="-147.5" gradientTransform="matrix(0.093759,0,0,0.093759,0,20.158174)">
<stop offset="0" style="stop-color:rgb(29.803922%,68.627451%,31.372549%);stop-opacity:1;"/>
<stop offset="1" style="stop-color:rgb(40%,73.333333%,41.568627%);stop-opacity:1;"/>
</linearGradient>
<linearGradient id="linear3" gradientUnits="userSpaceOnUse" x1="960" y1="1695.118164" x2="960" y2="175.118118" gradientTransform="matrix(1,0,0,1,0,0)">
<stop offset="0" style="stop-color:rgb(84.313725%,80%,78.431373%);stop-opacity:1;"/>
<stop offset="1" style="stop-color:rgb(93.72549%,92.156863%,91.372549%);stop-opacity:1;"/>
</linearGradient>
<linearGradient id="linear4" gradientUnits="userSpaceOnUse" x1="1240" y1="495.118103" x2="1240" y2="1375.118164" gradientTransform="matrix(0.264583,0,0,0.264583,0,-257.333099)">
<stop offset="0" style="stop-color:rgb(93.72549%,32.54902%,31.372549%);stop-opacity:1;"/>
<stop offset="1" style="stop-color:rgb(95.686275%,26.27451%,21.176471%);stop-opacity:1;"/>
</linearGradient>
</defs>
<g id="surface1">
<path style=" stroke:none;fill-rule:nonzero;fill:url(#linear0);" d="M 5.457031 4.34375 L 42.171875 4.34375 C 42.992188 4.34375 43.660156 5.011719 43.660156 5.832031 L 43.660156 40.5625 C 43.660156 41.382812 42.992188 42.050781 42.171875 42.050781 L 5.457031 42.050781 C 4.636719 42.050781 3.96875 41.382812 3.96875 40.5625 L 3.96875 5.832031 C 3.96875 5.011719 4.636719 4.34375 5.457031 4.34375 Z M 5.457031 4.34375 "/>
<path style=" stroke:none;fill-rule:nonzero;fill:url(#linear1);" d="M 7.691406 42.050781 L 40.1875 42.050781 L 40.1875 44.035156 L 7.691406 44.035156 Z M 7.691406 42.050781 "/>
<path style=" stroke:none;fill-rule:nonzero;fill:url(#radial0);" d="M 40.1875 42.050781 L 44.15625 42.050781 L 44.15625 40.066406 L 40.1875 40.066406 Z M 40.1875 42.050781 "/>
<path style=" stroke:none;fill-rule:nonzero;fill:url(#radial1);" d="M 7.691406 42.050781 L 3.722656 42.050781 L 3.722656 44.035156 L 7.691406 44.035156 Z M 7.691406 42.050781 "/>
<path style=" stroke:none;fill-rule:nonzero;fill:url(#radial2);" d="M 7.691406 42.050781 L 3.722656 42.050781 L 3.722656 40.066406 L 7.691406 40.066406 Z M 7.691406 42.050781 "/>
<path style=" stroke:none;fill-rule:nonzero;fill:url(#radial3);" d="M 40.1875 42.050781 L 44.15625 42.050781 L 44.15625 44.035156 L 40.1875 44.035156 Z M 40.1875 42.050781 "/>
<path style=" stroke:none;fill-rule:nonzero;fill:url(#linear2);" d="M 43.660156 6.328125 L 26.597656 22.933594 L 43.660156 39.074219 Z M 23.578125 25.871094 L 6.945312 42.050781 L 40.683594 42.050781 Z M 23.578125 25.871094 "/>
<path style=" stroke:none;fill-rule:nonzero;fill:rgb(0%,0%,0%);fill-opacity:0.196078;" d="M 5.953125 42.050781 C 4.855469 42.050781 3.96875 41.164062 3.96875 40.066406 L 3.96875 39.816406 C 3.96875 40.917969 4.855469 41.804688 5.953125 41.804688 L 41.675781 41.804688 C 42.773438 41.804688 43.660156 40.917969 43.660156 39.816406 L 43.660156 40.066406 C 43.660156 41.164062 42.773438 42.050781 41.675781 42.050781 Z M 5.953125 42.050781 "/>
<path style="fill-rule:evenodd;fill:url(#linear3);stroke-width:11.338583;stroke-linecap:butt;stroke-linejoin:miter;stroke:rgb(12.941177%,12.941177%,12.941177%);stroke-opacity:1;stroke-miterlimit:4;" d="M 1640.000954 175.101398 L 159.984731 1575.125256 L 159.984731 1635.11953 C 159.984731 1668.344706 186.753829 1695.113804 219.979005 1695.113804 L 279.973279 1695.113804 L 950.460467 1042.89259 L 1640.000954 1695.113804 L 1699.995228 1695.113804 C 1733.220404 1695.113804 1759.989502 1668.344706 1759.989502 1635.11953 L 1759.989502 1575.125256 L 1072.181133 924.478694 L 1759.989502 255.093763 L 1759.989502 235.095672 C 1759.989502 201.870497 1733.220404 175.101398 1699.995228 175.101398 Z M 1640.000954 175.101398 " transform="matrix(0.0248071,0,0,0.0248071,0,0)"/>
<path style=" stroke:none;fill-rule:nonzero;fill:rgb(100%,100%,100%);fill-opacity:0.643137;" d="M 5.953125 4.34375 C 4.855469 4.34375 3.96875 5.230469 3.96875 6.328125 L 3.96875 6.578125 C 3.96875 5.476562 4.855469 4.59375 5.953125 4.59375 L 41.675781 4.59375 C 42.773438 4.59375 43.660156 5.476562 43.660156 6.578125 L 43.660156 6.328125 C 43.660156 5.230469 42.773438 4.34375 41.675781 4.34375 Z M 5.953125 4.34375 "/>
<path style=" stroke:none;fill-rule:nonzero;fill:rgb(12.941177%,12.941177%,12.941177%);fill-opacity:1;" d="M 5.457031 4.203125 C 4.558594 4.203125 3.828125 4.933594 3.828125 5.832031 L 3.828125 40.5625 C 3.828125 41.460938 4.558594 42.191406 5.457031 42.191406 L 42.171875 42.191406 C 43.070312 42.191406 43.800781 41.460938 43.800781 40.5625 L 43.800781 5.832031 C 43.800781 4.933594 43.070312 4.203125 42.171875 4.203125 Z M 5.457031 4.484375 L 42.171875 4.484375 C 42.921875 4.484375 43.519531 5.082031 43.519531 5.832031 L 43.519531 40.5625 C 43.519531 41.3125 42.921875 41.910156 42.171875 41.910156 L 5.457031 41.910156 C 4.707031 41.910156 4.109375 41.3125 4.109375 40.5625 L 4.109375 5.832031 C 4.109375 5.082031 4.707031 4.484375 5.457031 4.484375 Z M 5.457031 4.484375 "/>
<path style="fill-rule:nonzero;fill:url(#linear4);stroke-width:3;stroke-linecap:round;stroke-linejoin:miter;stroke:rgb(12.941177%,12.941177%,12.941177%);stroke-opacity:1;stroke-miterlimit:4;" d="M 328.093669 -126.3418 C 287.055921 -126.3418 254.017409 -93.303288 254.017409 -52.26554 C 254.017409 16.56122 306.929023 85.346318 328.093669 106.510964 C 343.967153 85.346318 402.169928 16.56122 402.169928 -52.26554 C 402.169928 -93.303288 369.131416 -126.3418 328.093669 -126.3418 Z M 328.093669 -84.012509 C 345.675323 -84.012509 359.840637 -69.847195 359.840637 -52.26554 C 359.840637 -34.642223 345.675323 -20.518572 328.093669 -20.518572 C 310.512014 -20.518572 296.3467 -34.642223 296.3467 -52.26554 C 296.3467 -69.847195 310.512014 -84.012509 328.093669 -84.012509 Z M 328.093669 -84.012509 " transform="matrix(0.093759,0,0,0.093759,0,20.158175)"/>
</g>
</svg>
